img/ic_newsFeed_active.svg

<svg width="24" height="24" fill="none" xmlns="http://www.w3.org/2000/svg"><path d="M12 2C6.48 2 2 6.48 2 12s4.48 10 10 10 10-4.48 10-10S17.52 2 12 2zM4 12c0-.61.08-1.21.21-1.78L8.99 15v1c0 1.1.9 2 2 2v1.93C7.06 19.43 4 16.07 4 12zm13.89 5.4c-.26-.81-1-1.4-1.9-1.4h-1v-3c0-.55-.45-1-1-1h-6v-2h2c.55 0 1-.45 1-1V7h2c1.1 0 2-.9 2-2v-.41C17.92 5.77 20 8.65 20 12c0 2.08-.81 3.98-2.11 5.4z" fill="#22D091"/></svg>

<svg width="24" height="24" viewBox="0 0 24 24" fill="none" xmlns="http://www.w3.org/2000/svg">
<path d="M12 2C6.48 2 2 6.48 2 12C2 17.52 6.48 22 12 22C17.52 22 22 17.52 22 12C22 6.48 17.52 2 12 2ZM4 12C4 11.39 4.08 10.79 4.21 10.22L8.99 15V16C8.99 17.1 9.89 18 10.99 18V19.93C7.06 19.43 4 16.07 4 12ZM17.89 17.4C17.63 16.59 16.89 16 15.99 16H14.99V13C14.99 12.45 14.54 12 13.99 12H7.99V10H9.99C10.54 10 10.99 9.55 10.99 9V7H12.99C14.09 7 14.99 6.1 14.99 5V4.59C17.92 5.77 20 8.65 20 12C20 14.08 19.19 15.98 17.89 17.4Z" fill="#22D091"/>
</svg>
